X:8
T:GB/7a/8 Just As the Tide Was Flowing
%%VWML:GB-7a-8-0
F:http://www.vwml.org/record/GB/7a/8
T:Version 1 of 3
C:Mr Weekes (c. 80) Ticehurst, Kent IV, 07
C:Transcribed by Simon Furey and Lewis Jones
L:1/8
M:4/4
I:linebreak $
K:F
AG | F2 D2 D2 C2 | F2 F2 G2 FG | A2 c2 BAGF | D3 E F2 :| AB | c3 A d3 A |$ B2 G2 c3 B | A2 A2 G2 FG | A2 C2 !fermata!C2 AG | F2 D2 D2 C2 | F2 F2 G2 F2 | A2 c2 BAGF | D3 E F2 |]

